; generated by PrusaSlicer 2.4.0+win64 on 2022-01-28 at 13:12:31 UTC


;
;

;
;
; 

; external perimeters extrusion width = 0.45mm
; perimeters extrusion width = 0.45mm
; infill extrusion width = 0.50mm
; solid infill extrusion width = 0.45mm
; top infill extrusion width = 0.40mm
; first layer extrusion width = 0.40mm

M73 P0 R15
M201 X9000 Y9000 Z200 E10000 ; sets maximum accelerations, mm/sec^2
M203 X270 Y270 Z30 E150 ; sets maximum feedrates, mm/sec
M204 P5000 R1500 T5000 ; sets acceleration (P, T) and retract acceleration (R), mm/sec^2
M205 X15.00 Y15.00 Z0.20 E3.00 ; sets the jerk limits, mm/sec
M205 S0 T0 ; sets the minimum extruding and travel feed rate, mm/sec
M107
M190 S100 ; set bed temperature and wait for it to be reached
M104 S245 ; set temperature
;TYPE:Custom
G28                  ; home printer xyz
G0 Y0 X40            ; go to tongue of print bed
G1 Z0.2 F500.0       ; move bed to nozzle
G92 E0.0             ; reset extruder
G1 E4 F500.0         ; pre-purge prime LENGTH SHOULD MATCH YOUR PRINT_END RETRACT
G1 X80 E10.0 F500.0  ; intro line 1
G92 E0.0             ; reset extruder
G1 Z2.0              ; move nozzle to prevent scratch
print_start
M109 S245 ; set temperature and wait for it to be reached
G21 ; set units to millimeters
G90 ; use absolute coordinates
M83 ; use relative distances for extrusion
;Filament gcode
M107
;LAYER_CHANGE
;Z:0.35
;HEIGHT:0.35
G1 E-1 F1500
G1 Z.35 F15000
G1 Z.55
G1 X6.42 Y96.895
G1 Z.35
G1 E1 F1500
M204 S500
;TYPE:External perimeter
;WIDTH:0.4
G1 F1200
G1 X7.608 Y96.823 E.05065
G1 X19.055 Y96.82 E.48705
G1 X20.059 Y96.841 E.0427
G1 X20.745 Y96.9 E.02932
G1 X20.745 Y115.17 E.77734
G1 X20.059 Y115.229 E.02932
G1 X19.055 Y115.25 E.0427
G1 X7.608 Y115.246 E.48705
G1 X6.42 Y115.174 E.05065
G1 X6.42 Y96.955 E.77518
M204 S3500
G1 X6.395 Y96.496 F15000
G1 X6.206 Y96.514
M204 S500
M73 P1 R15
G1 F1200
G1 X6.943 Y96.495 E.03138
G1 X20.959 Y96.512 E.59634
G1 X20.993 Y96.74 E.00978
G1 X21.008 Y97.215 E.02022
G1 X21.008 Y114.855 E.75057
G1 X20.993 Y115.33 E.02022
G1 X20.959 Y115.556 E.00971
G1 X20.222 Y115.575 E.03138
G1 X6.943 Y115.575 E.56497
G1 X6.206 Y115.556 E.03138
G1 X6.172 Y115.33 E.00971
G1 X6.157 Y114.855 E.02023
G1 X6.157 Y97.215 E.75057
G1 X6.172 Y96.74 E.02023
G1 X6.197 Y96.573 E.00716
M204 S3500
G1 X6.551 Y96.716 F15000
G1 X6.341 Y96.705
M204 S500
;TYPE:Gap fill
;WIDTH:0.138515
G1 F1200
G1 X6.837 Y96.684 E.00412
M204 S3500
G1 E-1 F1500
G1 Z.55 F15000
G1 X20.451 Y96.689
G1 Z.35
G1 E1 F1500
M204 S500
;WIDTH:0.143018
G1 F1200
G1 X20.709 Y96.7 E.0023
M204 S3500
M204 S500
;WIDTH:0.146955
G1 X20.824 Y96.707 E.00108
M204 S3500
G1 E-1 F1500
G1 Z.55 F15000
G1 X20.824 Y115.362
G1 Z.35
G1 E1 F1500
M204 S500
;WIDTH:0.143814
G1 F1200
G1 X20.42 Y115.384 E.00364
M204 S3500
G1 E-1 F1500
G1 Z.55 F15000
G1 X6.837 Y115.386
G1 Z.35
G1 E1 F1500
M204 S500
;WIDTH:0.138516
G1 F1200
G1 X6.341 Y115.365 E.00412
M204 S3500
G1 E-1 F1500
G1 Z.55 F15000
G1 X7.726 Y113.385
G1 Z.35
G1 E1 F1500
M204 S500
;TYPE:Perimeter
;WIDTH:0.4
G1 F1200
G1 X7.726 Y98.285 E.64248
G1 X19.439 Y98.285 E.49834
G1 X19.439 Y113.785 E.6595
G1 X7.726 Y113.785 E.49834
G1 X7.726 Y113.445 E.01447
M204 S3500
G1 X7.402 Y114.11 F15000
M204 S500
;TYPE:External perimeter
G1 F1200
G1 X7.402 Y97.96 E.68715
G1 X19.764 Y97.96 E.52598
G1 X19.764 Y114.11 E.68715
G1 X7.462 Y114.11 E.52343
M204 S3500
M73 P2 R15
G1 X7.488 Y113.719 F15000
M73 P2 R14
G1 E-1 F1500
G1 Z.55 F15000
G1 X18.678 Y98.382
G1 Z.35
G1 E1 F1500
M204 S500
;TYPE:Solid infill
;WIDTH:0.402912
G1 F1200
G1 X19.195 Y98.899 E.03137
G1 X19.195 Y99.363 E.0199
G1 X18.361 Y98.528 E.05064
G1 X17.897 Y98.528 E.0199
G1 X19.195 Y99.826 E.07879
G1 X19.195 Y100.29 E.0199
G1 X17.434 Y98.528 E.10693
G1 X16.97 Y98.528 E.0199
G1 X19.195 Y100.753 E.13508
G1 X19.195 Y101.217 E.0199
G1 X16.507 Y98.528 E.16322
G1 X16.043 Y98.528 E.0199
G1 X19.195 Y101.681 E.19136
G1 X19.195 Y102.144 E.0199
G1 X15.58 Y98.528 E.21951
G1 X15.116 Y98.528 E.0199
G1 X19.195 Y102.608 E.24765
G1 X19.195 Y103.071 E.0199
G1 X14.652 Y98.528 E.2758
G1 X14.189 Y98.528 E.0199
G1 X19.195 Y103.535 E.30394
G1 X19.195 Y103.998 E.0199
G1 X13.725 Y98.528 E.33209
G1 X13.262 Y98.528 E.0199
G1 X19.195 Y104.462 E.36023
G1 X19.195 Y104.926 E.0199
G1 X12.798 Y98.528 E.38838
G1 X12.334 Y98.528 E.0199
G1 X19.195 Y105.389 E.41652
G1 X19.195 Y105.853 E.0199
G1 X11.871 Y98.528 E.44467
G1 X11.407 Y98.528 E.0199
G1 X19.195 Y106.316 E.47281
G1 X19.195 Y106.78 E.0199
G1 X10.944 Y98.528 E.50096
G1 X10.48 Y98.528 E.0199
G1 X19.195 Y107.243 E.5291
G1 X19.195 Y107.707 E.0199
G1 X10.017 Y98.528 E.55724
G1 X9.553 Y98.528 E.0199
G1 X19.195 Y108.171 E.58539
M73 P3 R14
G1 X19.195 Y108.634 E.0199
G1 X9.089 Y98.528 E.61353
G1 X8.626 Y98.528 E.0199
G1 X19.195 Y109.098 E.64168
G1 X19.195 Y109.561 E.0199
G1 X8.162 Y98.528 E.66982
G1 X7.97 Y98.528 E.00825
G1 X7.97 Y98.8 E.01165
G1 X19.195 Y110.025 E.68149
G1 X19.195 Y110.489 E.0199
G1 X7.97 Y99.264 E.68149
G1 X7.97 Y99.727 E.0199
G1 X19.195 Y110.952 E.68149
G1 X19.195 Y111.416 E.0199
G1 X7.97 Y100.191 E.68149
G1 X7.97 Y100.654 E.0199
G1 X19.195 Y111.879 E.68149
G1 X19.195 Y112.343 E.0199
G1 X7.97 Y101.118 E.68149
G1 X7.97 Y101.581 E.0199
G1 X19.195 Y112.806 E.68149
G1 X19.195 Y113.27 E.0199
G1 X7.97 Y102.045 E.68149
G1 X7.97 Y102.509 E.0199
G1 X19.003 Y113.541 E.66982
M73 P4 R14
G1 X18.539 Y113.541 E.0199
G1 X7.97 Y102.972 E.64167
G1 X7.97 Y103.436 E.0199
G1 X18.076 Y113.541 E.61353
G1 X17.612 Y113.541 E.0199
G1 X7.97 Y103.899 E.58538
G1 X7.97 Y104.363 E.0199
G1 X17.149 Y113.541 E.55724
G1 X16.685 Y113.541 E.0199
G1 X7.97 Y104.826 E.52909
G1 X7.97 Y105.29 E.0199
G1 X16.221 Y113.541 E.50095
G1 X15.758 Y113.541 E.0199
G1 X7.97 Y105.754 E.4728
G1 X7.97 Y106.217 E.0199
G1 X15.294 Y113.541 E.44466
G1 X14.831 Y113.541 E.0199
G1 X7.97 Y106.681 E.41652
G1 X7.97 Y107.144 E.0199
G1 X14.367 Y113.541 E.38837
G1 X13.904 Y113.541 E.0199
G1 X7.97 Y107.608 E.36023
G1 X7.97 Y108.072 E.0199
G1 X13.44 Y113.541 E.33208
G1 X12.976 Y113.541 E.0199
G1 X7.97 Y108.535 E.30394
G1 X7.97 Y108.999 E.0199
G1 X12.513 Y113.541 E.27579
G1 X12.049 Y113.541 E.0199
G1 X7.97 Y109.462 E.24765
M73 P5 R14
G1 X7.97 Y109.926 E.0199
G1 X11.586 Y113.541 E.2195
G1 X11.122 Y113.541 E.0199
G1 X7.97 Y110.389 E.19136
G1 X7.97 Y110.853 E.0199
G1 X10.658 Y113.541 E.16321
G1 X10.195 Y113.541 E.0199
G1 X7.97 Y111.317 E.13507
G1 X7.97 Y111.78 E.0199
G1 X9.731 Y113.541 E.10692
G1 X9.268 Y113.541 E.0199
G1 X7.97 Y112.244 E.07878
G1 X7.97 Y112.707 E.0199
G1 X8.804 Y113.541 E.05064
G1 X8.341 Y113.541 E.0199
G1 X7.824 Y113.025 E.03137
M204 S3500
G1 E-1 F1500
G1 Z.55 F15000
G1 X52.837 Y115.174
G1 Z.35
G1 E1 F1500
M204 S500
;TYPE:External perimeter
;WIDTH:0.4
G1 F1200
G1 X52.837 Y96.895 E.77773
G1 X54.026 Y96.823 E.05065
G1 X65.473 Y96.82 E.48705
G1 X66.476 Y96.841 E.0427
G1 X67.163 Y96.9 E.02932
G1 X67.163 Y115.17 E.77734
G1 X66.476 Y115.229 E.02932
G1 X65.473 Y115.25 E.0427
G1 X54.026 Y115.246 E.48705
G1 X52.897 Y115.178 E.0481
M204 S3500
G1 X52.437 Y115.174 F15000
G1 X52.623 Y115.556
M204 S500
G1 F1200
G1 X52.589 Y115.33 E.00971
G1 X52.574 Y114.855 E.02023
G1 X52.574 Y97.215 E.75057
G1 X52.589 Y96.74 E.02023
G1 X52.623 Y96.514 E.00971
G1 X53.361 Y96.495 E.03138
G1 X67.376 Y96.512 E.59634
G1 X67.411 Y96.74 E.00978
G1 X67.426 Y97.215 E.02023
G1 X67.426 Y114.855 E.75057
G1 X67.411 Y115.33 E.02023
G1 X67.377 Y115.556 E.00971
G1 X66.639 Y115.575 E.03138
G1 X53.361 Y115.575 E.56497
G1 X52.683 Y115.558 E.02883
M204 S3500
G1 X52.717 Y115.348 F15000
G1 X52.759 Y115.365
M204 S500
;TYPE:Gap fill
;WIDTH:0.138516
G1 F1200
G1 X53.254 Y115.386 E.00412
M204 S3500
G1 E-1 F1500
G1 Z.55 F15000
G1 X66.838 Y115.384
G1 Z.35
G1 E1 F1500
M204 S500
;WIDTH:0.143814
M73 P6 R14
G1 F1200
G1 X67.242 Y115.362 E.00364
M204 S3500
G1 E-1 F1500
G1 Z.55 F15000
G1 X67.242 Y96.707
G1 Z.35
G1 E1 F1500
M204 S500
;WIDTH:0.146955
G1 F1200
G1 X67.127 Y96.7 E.00108
M204 S3500
M204 S500
;WIDTH:0.143018
G1 X66.868 Y96.689 E.0023
M204 S3500
G1 E-1 F1500
G1 Z.55 F15000
G1 X53.254 Y96.684
G1 Z.35
G1 E1 F1500
M204 S500
;WIDTH:0.138517
G1 F1200
G1 X52.759 Y96.705 E.00412
M204 S3500
G1 E-1 F1500
G1 Z.55 F15000
G1 X54.544 Y98.285
G1 Z.35
G1 E1 F1500
M204 S500
;TYPE:Perimeter
;WIDTH:0.4
G1 F1200
G1 X65.856 Y98.285 E.48132
G1 X65.856 Y113.785 E.6595
G1 X54.144 Y113.785 E.49834
G1 X54.144 Y98.285 E.6595
G1 X54.484 Y98.285 E.01447
M204 S3500
G1 X53.819 Y97.96 F15000
M204 S500
;TYPE:External perimeter
G1 F1200
G1 X66.181 Y97.96 E.52598
G1 X66.181 Y114.11 E.68715
G1 X53.819 Y114.11 E.52598
G1 X53.819 Y98.02 E.6846
M204 S3500
G1 X54.2 Y98.08 F15000
G1 E-1 F1500
G1 Z.55 F15000
G1 X65.096 Y98.382
G1 Z.35
G1 E1 F1500
M204 S500
;TYPE:Solid infill
;WIDTH:0.402912
G1 F1200
G1 X65.613 Y98.899 E.03137
G1 X65.613 Y99.363 E.0199
G1 X64.778 Y98.528 E.05064
G1 X64.315 Y98.528 E.0199
G1 X65.613 Y99.826 E.07879
G1 X65.613 Y100.29 E.0199
G1 X63.851 Y98.528 E.10693
G1 X63.388 Y98.528 E.0199
G1 X65.613 Y100.753 E.13508
G1 X65.613 Y101.217 E.0199
G1 X62.924 Y98.528 E.16322
G1 X62.46 Y98.528 E.0199
G1 X65.613 Y101.681 E.19136
G1 X65.613 Y102.144 E.0199
G1 X61.997 Y98.528 E.21951
G1 X61.533 Y98.528 E.0199
G1 X65.613 Y102.608 E.24765
G1 X65.613 Y103.071 E.0199
G1 X61.07 Y98.528 E.2758
G1 X60.606 Y98.528 E.0199
G1 X65.613 Y103.535 E.30394
M73 P7 R14
G1 X65.613 Y103.998 E.0199
G1 X60.143 Y98.528 E.33209
G1 X59.679 Y98.528 E.0199
G1 X65.613 Y104.462 E.36023
G1 X65.613 Y104.926 E.0199
G1 X59.215 Y98.528 E.38838
G1 X58.752 Y98.528 E.0199
G1 X65.613 Y105.389 E.41652
G1 X65.613 Y105.853 E.0199
G1 X58.288 Y98.528 E.44467
G1 X57.825 Y98.528 E.0199
G1 X65.613 Y106.316 E.47281
G1 X65.613 Y106.78 E.0199
G1 X57.361 Y98.528 E.50096
G1 X56.898 Y98.528 E.0199
G1 X65.613 Y107.243 E.5291
G1 X65.613 Y107.707 E.0199
G1 X56.434 Y98.528 E.55724
G1 X55.97 Y98.528 E.0199
G1 X65.613 Y108.171 E.58539
G1 X65.613 Y108.634 E.0199
G1 X55.507 Y98.528 E.61353
G1 X55.043 Y98.528 E.0199
G1 X65.613 Y109.098 E.64168
G1 X65.613 Y109.561 E.0199
G1 X54.58 Y98.528 E.66982
G1 X54.387 Y98.528 E.00825
G1 X54.387 Y98.8 E.01165
G1 X65.613 Y110.025 E.68149
G1 X65.613 Y110.489 E.0199
G1 X54.387 Y99.263 E.68149
G1 X54.387 Y99.727 E.0199
G1 X65.613 Y110.952 E.68149
M73 P8 R14
G1 X65.613 Y111.416 E.0199
G1 X54.387 Y100.191 E.68149
G1 X54.387 Y100.654 E.0199
G1 X65.613 Y111.879 E.68149
G1 X65.613 Y112.343 E.0199
G1 X54.387 Y101.118 E.68149
G1 X54.387 Y101.581 E.0199
G1 X65.613 Y112.806 E.68149
G1 X65.613 Y113.27 E.0199
G1 X54.387 Y102.045 E.68149
G1 X54.387 Y102.509 E.0199
G1 X65.42 Y113.541 E.66982
G1 X64.957 Y113.541 E.0199
G1 X54.387 Y102.972 E.64167
M73 P8 R13
G1 X54.387 Y103.436 E.0199
G1 X64.493 Y113.541 E.61353
G1 X64.03 Y113.541 E.0199
G1 X54.387 Y103.899 E.58538
G1 X54.387 Y104.363 E.0199
G1 X63.566 Y113.541 E.55724
G1 X63.102 Y113.541 E.0199
G1 X54.387 Y104.826 E.52909
M73 P9 R13
G1 X54.387 Y105.29 E.0199
G1 X62.639 Y113.541 E.50095
G1 X62.175 Y113.541 E.0199
G1 X54.387 Y105.754 E.4728
G1 X54.387 Y106.217 E.0199
G1 X61.712 Y113.541 E.44466
G1 X61.248 Y113.541 E.0199
G1 X54.387 Y106.681 E.41652
G1 X54.387 Y107.144 E.0199
G1 X60.784 Y113.541 E.38837
G1 X60.321 Y113.541 E.0199
G1 X54.387 Y107.608 E.36023
G1 X54.387 Y108.072 E.0199
G1 X59.857 Y113.541 E.33208
G1 X59.394 Y113.541 E.0199
G1 X54.387 Y108.535 E.30394
G1 X54.387 Y108.999 E.0199
G1 X58.93 Y113.541 E.27579
G1 X58.467 Y113.541 E.0199
G1 X54.387 Y109.462 E.24765
G1 X54.387 Y109.926 E.0199
G1 X58.003 Y113.541 E.2195
G1 X57.539 Y113.541 E.0199
G1 X54.387 Y110.389 E.19136
G1 X54.387 Y110.853 E.0199
G1 X57.076 Y113.541 E.16321
G1 X56.612 Y113.541 E.0199
G1 X54.387 Y111.317 E.13507
G1 X54.387 Y111.78 E.0199
G1 X56.149 Y113.541 E.10692
G1 X55.685 Y113.541 E.0199
G1 X54.387 Y112.244 E.07878
G1 X54.387 Y112.707 E.0199
G1 X55.222 Y113.541 E.05064
G1 X54.758 Y113.541 E.0199
G1 X54.241 Y113.025 E.03137
M204 S3500
G1 E-1 F1500
G1 Z.55 F15000
G1 X99.255 Y115.174
G1 Z.35
G1 E1 F1500
M204 S500
;TYPE:External perimeter
;WIDTH:0.4
G1 F1200
G1 X99.255 Y96.895 E.77773
G1 X100.443 Y96.823 E.05065
G1 X111.89 Y96.82 E.48705
G1 X112.893 Y96.841 E.0427
G1 X113.58 Y96.9 E.02932
G1 X113.58 Y115.17 E.77734
G1 X112.893 Y115.229 E.02932
G1 X111.89 Y115.25 E.0427
M73 P10 R13
G1 X100.443 Y115.246 E.48705
G1 X99.315 Y115.178 E.0481
M204 S3500
G1 X98.855 Y115.174 F15000
G1 X99.041 Y115.556
M204 S500
G1 F1200
G1 X99.007 Y115.33 E.00971
G1 X98.992 Y114.855 E.02022
G1 X98.992 Y97.215 E.75057
G1 X99.007 Y96.74 E.02022
G1 X99.041 Y96.514 E.00971
G1 X99.778 Y96.495 E.03138
G1 X113.794 Y96.512 E.59634
G1 X113.828 Y96.74 E.00978
G1 X113.843 Y97.215 E.02023
G1 X113.843 Y114.855 E.75057
G1 X113.828 Y115.33 E.02023
G1 X113.794 Y115.556 E.00971
G1 X113.057 Y115.575 E.03138
G1 X99.778 Y115.575 E.56497
G1 X99.101 Y115.558 E.02883
M204 S3500
G1 X99.135 Y115.348 F15000
G1 X99.176 Y115.365
M204 S500
;TYPE:Gap fill
;WIDTH:0.138516
G1 F1200
G1 X99.671 Y115.386 E.00412
M204 S3500
G1 E-1 F1500
G1 Z.55 F15000
G1 X113.255 Y115.384
G1 Z.35
G1 E1 F1500
M204 S500
;WIDTH:0.143814
G1 F1200
G1 X113.659 Y115.362 E.00364
M204 S3500
G1 E-1 F1500
G1 Z.55 F15000
G1 X113.659 Y96.707
G1 Z.35
G1 E1 F1500
M204 S500
;WIDTH:0.146955
G1 F1200
G1 X113.544 Y96.7 E.00108
M204 S3500
M204 S500
;WIDTH:0.143018
G1 X113.286 Y96.689 E.0023
M204 S3500
G1 E-1 F1500
G1 Z.55 F15000
G1 X99.671 Y96.684
G1 Z.35
G1 E1 F1500
M204 S500
;WIDTH:0.138517
G1 F1200
G1 X99.176 Y96.705 E.00412
M204 S3500
G1 E-1 F1500
G1 Z.55 F15000
G1 X100.961 Y98.285
G1 Z.35
G1 E1 F1500
M204 S500
;TYPE:Perimeter
;WIDTH:0.4
G1 F1200
G1 X112.274 Y98.285 E.48132
G1 X112.274 Y113.785 E.6595
G1 X100.561 Y113.785 E.49834
G1 X100.561 Y98.285 E.6595
G1 X100.901 Y98.285 E.01447
M204 S3500
G1 X100.236 Y97.96 F15000
M204 S500
;TYPE:External perimeter
G1 F1200
G1 X112.598 Y97.96 E.52598
G1 X112.598 Y114.11 E.68715
G1 X100.236 Y114.11 E.52598
M73 P11 R13
G1 X100.236 Y98.02 E.6846
M204 S3500
G1 X100.618 Y98.08 F15000
G1 E-1 F1500
G1 Z.55 F15000
G1 X111.513 Y98.382
G1 Z.35
G1 E1 F1500
M204 S500
;TYPE:Solid infill
;WIDTH:0.402912
G1 F1200
G1 X112.03 Y98.899 E.03137
G1 X112.03 Y99.363 E.0199
G1 X111.196 Y98.528 E.05064
G1 X110.732 Y98.528 E.0199
G1 X112.03 Y99.826 E.07879
G1 X112.03 Y100.29 E.0199
G1 X110.269 Y98.528 E.10693
G1 X109.805 Y98.528 E.0199
G1 X112.03 Y100.753 E.13508
G1 X112.03 Y101.217 E.0199
G1 X109.341 Y98.528 E.16322
G1 X108.878 Y98.528 E.0199
G1 X112.03 Y101.681 E.19136
G1 X112.03 Y102.144 E.0199
G1 X108.414 Y98.528 E.21951
G1 X107.951 Y98.528 E.0199
G1 X112.03 Y102.608 E.24765
G1 X112.03 Y103.071 E.0199
G1 X107.487 Y98.528 E.2758
G1 X107.024 Y98.528 E.0199
G1 X112.03 Y103.535 E.30394
G1 X112.03 Y103.998 E.0199
G1 X106.56 Y98.528 E.33209
G1 X106.096 Y98.528 E.0199
G1 X112.03 Y104.462 E.36023
G1 X112.03 Y104.926 E.0199
G1 X105.633 Y98.528 E.38838
G1 X105.169 Y98.528 E.0199
G1 X112.03 Y105.389 E.41652
G1 X112.03 Y105.853 E.0199
G1 X104.706 Y98.528 E.44467
G1 X104.242 Y98.528 E.0199
G1 X112.03 Y106.316 E.47281
G1 X112.03 Y106.78 E.0199
G1 X103.778 Y98.528 E.50096
G1 X103.315 Y98.528 E.0199
G1 X112.03 Y107.243 E.5291
G1 X112.03 Y107.707 E.0199
G1 X102.851 Y98.528 E.55724
M73 P12 R13
G1 X102.388 Y98.528 E.0199
G1 X112.03 Y108.171 E.58539
G1 X112.03 Y108.634 E.0199
G1 X101.924 Y98.528 E.61353
G1 X101.461 Y98.528 E.0199
G1 X112.03 Y109.098 E.64168
G1 X112.03 Y109.561 E.0199
G1 X100.997 Y98.528 E.66982
G1 X100.805 Y98.528 E.00825
G1 X100.805 Y98.8 E.01165
G1 X112.03 Y110.025 E.68149
G1 X112.03 Y110.489 E.0199
G1 X100.805 Y99.264 E.68149
G1 X100.805 Y99.727 E.0199
G1 X112.03 Y110.952 E.68149
G1 X112.03 Y111.416 E.0199
G1 X100.805 Y100.191 E.68149
G1 X100.805 Y100.654 E.0199
G1 X112.03 Y111.879 E.68149
G1 X112.03 Y112.343 E.0199
G1 X100.805 Y101.118 E.68149
G1 X100.805 Y101.581 E.0199
G1 X112.03 Y112.806 E.68149
G1 X112.03 Y113.27 E.0199
G1 X100.805 Y102.045 E.68149
M73 P13 R13
G1 X100.805 Y102.509 E.0199
G1 X111.838 Y113.541 E.66982
G1 X111.374 Y113.541 E.0199
G1 X100.805 Y102.972 E.64167
G1 X100.805 Y103.436 E.0199
G1 X110.911 Y113.541 E.61353
G1 X110.447 Y113.541 E.0199
G1 X100.805 Y103.899 E.58538
G1 X100.805 Y104.363 E.0199
G1 X109.983 Y113.541 E.55724
G1 X109.52 Y113.541 E.0199
G1 X100.805 Y104.826 E.52909
