; generated by PrusaSlicer 2.3.0+win64 on 2021-05-10 at 08:19:33 UTC

; 

; external perimeters extrusion width = 0.45mm
; perimeters extrusion width = 0.40mm
; infill extrusion width = 0.45mm
; solid infill extrusion width = 0.45mm
; top infill extrusion width = 0.40mm
; first layer extrusion width = 0.42mm

M73 P0 R104
M73 Q0 S105
M201 X1000 Y1000 Z200 E5000 ; sets maximum accelerations, mm/sec^2
M203 X200 Y200 Z12 E120 ; sets maximum feedrates, mm/sec
M204 P1250 R1250 T1250 ; sets acceleration (P, T) and retract acceleration (R), mm/sec^2
M205 X8.00 Y8.00 Z0.40 E4.50 ; sets the jerk limits, mm/sec
M205 S0 T0 ; sets the minimum extruding and travel feed rate, mm/sec
M107
;TYPE:Custom
M862.3 P "MK3S" ; printer model check
M862.1 P0.4 ; nozzle diameter check
M115 U3.9.2 ; tell printer latest fw version
G90 ; use absolute coordinates
M83 ; extruder relative mode
M104 S255 ; set extruder temp
M140 S100 ; set bed temp
M190 S100 ; wait for bed temp
M109 S255 ; wait for extruder temp
G28 W ; home all without mesh bed level
G80 ; mesh bed leveling
G1 Y-3.0 F1000.0 ; go outside print area
G92 E0.0
G1 X60.0 E9.0 F1000.0 ; intro line
G1 X100.0 E12.5 F1000.0 ; intro line
G92 E0.0
M221 S95

; Don't change E values below. Excessive value can damage the printer.

G21 ; set units to millimeters
G90 ; use absolute coordinates
M83 ; use relative distances for extrusion
M900 K0.04 ; Filament gcode LA 1.5
M900 K20 ; Filament gcode LA 1.0
;LAYER_CHANGE
;Z:0.2
;HEIGHT:0.2
;BEFORE_LAYER_CHANGE
G92 E0.0
;0.2


G1 E-1.00000 F2100.000
G1 Z0.400 F8400.000
;AFTER_LAYER_CHANGE
;0.2
; printing object [a]_Toolhead_Blower_Duct_Right_TV6_x1.STL id:1 copy 0
G1 X212.484 Y27.511
G1 Z0.200
G1 E1.00000 F2100.000
M204 S1000
;TYPE:Perimeter
;WIDTH:0.42
G1 F1500.000
G1 X212.644 Y26.295 E0.03847
G1 X212.909 Y25.097 E0.03847
G1 X213.278 Y23.927 E0.03847
G1 X213.748 Y22.793 E0.03847
G1 X214.314 Y21.705 E0.03847
G1 X214.974 Y20.670 E0.03847
G1 X215.721 Y19.696 E0.03847
G1 X216.550 Y18.792 E0.03847
G1 X217.454 Y17.963 E0.03847
G1 X218.428 Y17.216 E0.03847
G1 X219.463 Y16.556 E0.03847
G1 X220.551 Y15.990 E0.03847
G1 X221.685 Y15.520 E0.03847
G1 X222.855 Y15.151 E0.03847
G1 X224.053 Y14.886 E0.03847
G1 X225.269 Y14.725 E0.03847
G1 X226.495 Y14.672 E0.03847
G1 X227.721 Y14.725 E0.03847
G1 X228.938 Y14.886 E0.03847
G1 X230.136 Y15.151 E0.03847
G1 X231.306 Y15.520 E0.03847
G1 X232.440 Y15.990 E0.03847
G1 X233.528 Y16.556 E0.03847
G1 X234.563 Y17.216 E0.03847
G1 X235.536 Y17.963 E0.03847
G1 X236.441 Y18.792 E0.03847
G1 X237.270 Y19.696 E0.03847
G1 X238.017 Y20.670 E0.03847
G1 X238.676 Y21.705 E0.03847
G1 X239.243 Y22.793 E0.03847
G1 X239.712 Y23.927 E0.03847
G1 X240.081 Y25.097 E0.03847
G1 X240.347 Y26.295 E0.03847
G1 X240.507 Y27.511 E0.03847
G1 X240.561 Y28.737 E0.03847
G1 X240.507 Y29.963 E0.03847
G1 X240.347 Y31.180 E0.03847
G1 X240.081 Y32.378 E0.03847
G1 X239.712 Y33.548 E0.03847
G1 X239.243 Y34.681 E0.03847
G1 X238.676 Y35.770 E0.03847
G1 X238.017 Y36.805 E0.03847
G1 X237.270 Y37.778 E0.03847
G1 X236.441 Y38.683 E0.03847
G1 X235.536 Y39.512 E0.03847
G1 X234.563 Y40.259 E0.03847
G1 X233.528 Y40.918 E0.03847
G1 X232.440 Y41.485 E0.03847
G1 X231.306 Y41.954 E0.03847
G1 X230.136 Y42.323 E0.03847
G1 X228.938 Y42.589 E0.03847
G1 X227.721 Y42.749 E0.03847
G1 X226.495 Y42.803 E0.03847
G1 X225.269 Y42.749 E0.03847
G1 X224.053 Y42.589 E0.03847
G1 X222.855 Y42.323 E0.03847
G1 X221.685 Y41.954 E0.03847
G1 X220.551 Y41.485 E0.03847
G1 X219.463 Y40.918 E0.03847
G1 X218.428 Y40.259 E0.03847
G1 X217.454 Y39.512 E0.03847
G1 X216.550 Y38.683 E0.03847
G1 X215.721 Y37.778 E0.03847
G1 X214.974 Y36.805 E0.03847
G1 X214.314 Y35.770 E0.03847
G1 X213.748 Y34.681 E0.03847
G1 X213.278 Y33.548 E0.03847
G1 X212.909 Y32.378 E0.03847
G1 X212.644 Y31.180 E0.03847
G1 X212.484 Y29.963 E0.03847
G1 X212.430 Y28.737 E0.03847
G1 X212.481 Y27.571 E0.03659
M204 S1100
G1 X212.858 Y27.588 F8400.000
M204 S1000
G1 F1500.000
G1 X213.015 Y26.360 E0.03880
G1 X213.274 Y25.195 E0.03744
G1 X213.633 Y24.056 E0.03744
G1 X214.090 Y22.952 E0.03744
G1 X214.641 Y21.893 E0.03744
G1 X215.283 Y20.886 E0.03744
G1 X216.010 Y19.939 E0.03744
G1 X216.817 Y19.058 E0.03744
G1 X217.697 Y18.252 E0.03744
G1 X218.644 Y17.525 E0.03744
G1 X219.651 Y16.883 E0.03744
G1 X220.711 Y16.332 E0.03744
G1 X221.814 Y15.875 E0.03744
G1 X222.953 Y15.516 E0.03744
G1 X224.118 Y15.257 E0.03744
G1 X225.302 Y15.101 E0.03744
G1 X226.495 Y15.049 E0.03744
G1 X227.688 Y15.101 E0.03744
G1 X228.872 Y15.257 E0.03744
G1 X230.038 Y15.516 E0.03744
G1 X231.177 Y15.875 E0.03744
G1 X232.280 Y16.332 E0.03744
G1 X233.339 Y16.883 E0.03744
G1 X234.346 Y17.525 E0.03744
G1 X235.294 Y18.252 E0.03744
G1 X236.174 Y19.058 E0.03744
G1 X236.981 Y19.939 E0.03744
G1 X237.708 Y20.886 E0.03744
G1 X238.349 Y21.893 E0.03744
G1 X238.901 Y22.952 E0.03744
G1 X239.358 Y24.056 E0.03744
G1 X239.717 Y25.195 E0.03744
G1 X239.975 Y26.360 E0.03744
G1 X240.131 Y27.544 E0.03744
G1 X240.183 Y28.737 E0.03744
G1 X240.131 Y29.930 E0.03744
G1 X239.975 Y31.114 E0.03744
G1 X239.717 Y32.280 E0.03744
G1 X239.358 Y33.419 E0.03744
G1 X238.901 Y34.522 E0.03744
G1 X238.349 Y35.581 E0.03744
G1 X237.708 Y36.588 E0.03744
G1 X236.981 Y37.536 E0.03744
G1 X236.174 Y38.416 E0.03744
G1 X235.294 Y39.223 E0.03744
G1 X234.346 Y39.950 E0.03744
G1 X233.339 Y40.591 E0.03744
G1 X232.280 Y41.143 E0.03744
G1 X231.177 Y41.600 E0.03744
G1 X230.038 Y41.959 E0.03744
G1 X228.872 Y42.217 E0.03744
G1 X227.688 Y42.373 E0.03744
G1 X226.495 Y42.425 E0.03744
G1 X225.302 Y42.373 E0.03744
G1 X224.118 Y42.217 E0.03744
G1 X222.953 Y41.959 E0.03744
G1 X221.814 Y41.600 E0.03744
G1 X220.711 Y41.143 E0.03744
G1 X219.651 Y40.591 E0.03744
G1 X218.644 Y39.950 E0.03744
G1 X217.697 Y39.223 E0.03744
G1 X216.817 Y38.416 E0.03744
G1 X216.010 Y37.536 E0.03744
G1 X215.283 Y36.588 E0.03744
G1 X214.641 Y35.581 E0.03744
G1 X214.090 Y34.522 E0.03744
G1 X213.633 Y33.419 E0.03744
G1 X213.274 Y32.280 E0.03744
G1 X213.015 Y31.114 E0.03744
G1 X212.860 Y29.930 E0.03744
G1 X212.807 Y28.737 E0.03744
G1 X212.855 Y27.648 E0.03419
M204 S1100
G1 X213.232 Y27.664 F8400.000
M204 S1000
;TYPE:External perimeter
G1 F1500.000
G1 X213.387 Y26.426 E0.03913
G1 X213.638 Y25.292 E0.03641
G1 X213.988 Y24.185 E0.03641
G1 X214.432 Y23.112 E0.03641
G1 X214.968 Y22.082 E0.03641
G1 X215.592 Y21.103 E0.03641
G1 X216.299 Y20.181 E0.03641
G1 X217.083 Y19.325 E0.03641
G1 X217.940 Y18.541 E0.03641
G1 X218.861 Y17.834 E0.03641
G1 X219.840 Y17.210 E0.03641
G1 X220.870 Y16.674 E0.03641
G1 X221.943 Y16.229 E0.03641
G1 X223.050 Y15.880 E0.03641
G1 X224.184 Y15.629 E0.03641
G1 X225.335 Y15.477 E0.03641
G1 X226.495 Y15.427 E0.03641
G1 X227.655 Y15.477 E0.03641
G1 X228.807 Y15.629 E0.03641
G1 X229.940 Y15.880 E0.03641
G1 X231.048 Y16.229 E0.03641
G1 X232.121 Y16.674 E0.03641
G1 X233.151 Y17.210 E0.03641
G1 X234.130 Y17.834 E0.03641
G1 X235.051 Y18.541 E0.03641
G1 X235.907 Y19.325 E0.03641
G1 X236.692 Y20.181 E0.03641
G1 X237.399 Y21.103 E0.03641
G1 X238.023 Y22.082 E0.03641
G1 X238.559 Y23.112 E0.03641
G1 X239.003 Y24.185 E0.03641
G1 X239.352 Y25.292 E0.03641
G1 X239.604 Y26.426 E0.03641
G1 X239.755 Y27.577 E0.03641
G1 X239.806 Y28.737 E0.03641
G1 X239.755 Y29.897 E0.03641
G1 X239.604 Y31.049 E0.03641
G1 X239.352 Y32.182 E0.03641
G1 X239.003 Y33.290 E0.03641
G1 X238.559 Y34.362 E0.03641
G1 X238.023 Y35.392 E0.03641
G1 X237.399 Y36.372 E0.03641
G1 X236.692 Y37.293 E0.03641
G1 X235.907 Y38.149 E0.03641
G1 X235.051 Y38.934 E0.03641
G1 X234.130 Y39.640 E0.03641
G1 X233.151 Y40.264 E0.03641
G1 X232.121 Y40.801 E0.03641
G1 X231.048 Y41.245 E0.03641
G1 X229.940 Y41.594 E0.03641
G1 X228.807 Y41.845 E0.03641
G1 X227.655 Y41.997 E0.03641
G1 X226.495 Y42.048 E0.03641
G1 X225.335 Y41.997 E0.03641
G1 X224.184 Y41.845 E0.03641
G1 X223.050 Y41.594 E0.03641
G1 X221.943 Y41.245 E0.03641
G1 X220.870 Y40.801 E0.03641
G1 X219.840 Y40.264 E0.03641
G1 X218.861 Y39.640 E0.03641
G1 X217.940 Y38.934 E0.03641
G1 X217.083 Y38.149 E0.03641
G1 X216.299 Y37.293 E0.03641
G1 X215.592 Y36.372 E0.03641
G1 X214.968 Y35.392 E0.03641
G1 X214.432 Y34.362 E0.03641
G1 X213.988 Y33.290 E0.03641
G1 X213.638 Y32.182 E0.03641
G1 X213.387 Y31.049 E0.03641
G1 X213.236 Y29.897 E0.03641
G1 X213.185 Y28.737 E0.03641
G1 X213.229 Y27.724 E0.03180
M204 S1100
G1 X212.903 Y27.436 F8400.000
;WIPE_START
G1 F6720.000
G1 X213.387 Y26.426 E-0.38824
G1 X213.638 Y25.292 E-0.34473
G1 X213.858 Y24.595 E-0.21703
;WIPE_END
G1 E-0.05000 F2100.000
G1 Z0.600 F8400.000
G1 X211.137 Y13.979
G1 Z0.200
G1 E1.00000 F2100.000
M204 S1000
;TYPE:Perimeter
G1 F1500.000
G1 X215.862 Y13.979 E0.14816
G1 X216.057 Y13.827 E0.00775
G1 X232.939 Y13.828 E0.52933
G1 X233.137 Y13.979 E0.00780
G1 X237.862 Y13.979 E0.14816
G1 X238.057 Y13.827 E0.00776
G1 X240.246 Y13.841 E0.06864
G1 X240.481 Y13.925 E0.00783
G1 X240.608 Y14.017 E0.00491
G1 X240.710 Y14.122 E0.00458
G1 X240.917 Y14.439 E0.01187
G1 X240.995 Y14.602 E0.00568
G1 X241.119 Y14.978 E0.01240
G1 X241.231 Y15.570 E0.01889
G1 X241.278 Y16.387 E0.02567
G1 X241.278 Y46.485 E0.94370
G1 X241.242 Y47.021 E0.01684
G1 X241.150 Y47.461 E0.01411
G1 X241.010 Y47.827 E0.01229
G1 X240.829 Y48.124 E0.01090
G1 X240.663 Y48.301 E0.00759
G1 X240.573 Y48.370 E0.00358
G1 X240.387 Y48.466 E0.00655
G1 X240.184 Y48.515 E0.00656
G1 X240.040 Y48.523 E0.00450
G1 X210.284 Y48.523 E0.93298
G1 X210.131 Y48.484 E0.00495
G1 X210.015 Y48.386 E0.00478
G1 X209.949 Y48.302 E0.00335
G1 X209.803 Y48.012 E0.01017
G1 X209.717 Y47.663 E0.01127
G1 X209.690 Y47.264 E0.01255
G1 X209.690 Y13.828 E1.04836
G1 X210.939 Y13.828 E0.03918
G1 X211.089 Y13.943 E0.00592
M204 S1100
G1 X211.264 Y13.602 F8400.000
M204 S1000
G1 F1500.000
G1 X215.732 Y13.602 E0.14008
G1 X215.927 Y13.450 E0.00776
G1 X233.067 Y13.451 E0.53741
G1 X233.264 Y13.602 E0.00780
G1 X237.732 Y13.602 E0.14009
G1 X237.927 Y13.449 E0.00776
G1 X240.288 Y13.464 E0.07402
G1 X240.460 Y13.502 E0.00554
G1 X240.672 Y13.597 E0.00727
G1 X240.856 Y13.731 E0.00715
G1 X240.998 Y13.878 E0.00640
G1 X241.252 Y14.263 E0.01446
G1 X241.346 Y14.462 E0.00689
G1 X241.483 Y14.876 E0.01368
G1 X241.606 Y15.523 E0.02066
G1 X241.641 Y15.921 E0.01251
G1 X241.655 Y16.382 E0.01446
G1 X241.655 Y46.497 E0.94426
G1 X241.617 Y47.072 E0.01807
G1 X241.513 Y47.568 E0.01589
G1 X241.349 Y47.994 E0.01429
G1 X241.136 Y48.344 E0.01286
G1 X240.910 Y48.587 E0.01042
G1 X240.784 Y48.683 E0.00494
G1 X240.519 Y48.821 E0.00937
G1 X240.227 Y48.890 E0.00940
G1 X240.051 Y48.900 E0.00554
G1 X210.271 Y48.900 E0.93372
G1 X210.054 Y48.864 E0.00692
G1 X209.946 Y48.814 E0.00373
G1 X209.736 Y48.641 E0.00853
G1 X209.635 Y48.512 E0.00513
G1 X209.446 Y48.136 E0.01321
G1 X209.342 Y47.709 E0.01376
G1 X209.312 Y47.277 E0.01359
G1 X209.312 Y13.451 E1.06059
G1 X211.067 Y13.451 E0.05501
G1 X211.217 Y13.566 E0.00592
M204 S1100
G1 X211.392 Y13.225 F8400.000
M204 S1000
;TYPE:External perimeter
G1 F1500.000
G1 X215.602 Y13.225 E0.13201
G1 X215.797 Y13.072 E0.00776
G1 X233.194 Y13.074 E0.54549
G1 X233.392 Y13.225 E0.00780
G1 X237.602 Y13.225 E0.13201
G1 X237.797 Y13.072 E0.00776
G1 X240.330 Y13.088 E0.07941
G1 X240.579 Y13.142 E0.00800
G1 X240.862 Y13.269 E0.00974
G1 X241.104 Y13.446 E0.00939
G1 X241.287 Y13.634 E0.00823
G1 X241.459 Y13.868 E0.00913
G1 X241.586 Y14.088 E0.00795
G1 X241.696 Y14.321 E0.00809
G1 X241.846 Y14.775 E0.01497
G1 X241.980 Y15.477 E0.02243
G1 X242.018 Y15.898 E0.01326
G1 X242.032 Y16.376 E0.01499
G1 X242.032 Y46.510 E0.94481
G1 X241.991 Y47.124 E0.01929
G1 X241.876 Y47.675 E0.01767
G1 X241.689 Y48.161 E0.01630
G1 X241.444 Y48.565 E0.01482
G1 X241.156 Y48.874 E0.01325
G1 X240.996 Y48.996 E0.00630
G1 X240.651 Y49.175 E0.01220
G1 X240.271 Y49.265 E0.01224
G1 X240.062 Y49.277 E0.00657
G1 X210.258 Y49.277 E0.93447
G1 X210.118 Y49.268 E0.00441
G1 X209.928 Y49.221 E0.00611
G1 X209.760 Y49.143 E0.00581
G1 X209.618 Y49.048 E0.00538
G1 X209.457 Y48.896 E0.00694
G1 X209.320 Y48.723 E0.00691
G1 X209.174 Y48.463 E0.00935
G1 X209.089 Y48.259 E0.00693
G1 X208.968 Y47.756 E0.01625
G1 X208.935 Y47.290 E0.01464
G1 X208.935 Y13.074 E1.07282
G1 X211.194 Y13.074 E0.07083
G1 X211.344 Y13.188 E0.00592
M204 S1100
G1 X211.585 Y13.575 F8400.000
;WIPE_START
G1 F6720.000
G1 X214.544 Y13.216 E-0.95000
;WIPE_END
G1 E-0.05000 F2100.000
G1 Z0.600 F8400.000
G1 X241.089 Y15.435
G1 Z0.200
G1 E1.00000 F2100.000
M204 S1000
;TYPE:Solid infill
;WIDTH:0.420952
G1 F1500.000
G1 X239.775 Y14.121 E0.05842
G1 X239.237 Y14.117 E0.01692
G1 X240.969 Y15.849 E0.07697
G1 X240.995 Y16.409 E0.01765
G1 X238.699 Y14.114 E0.10206
G1 X238.161 Y14.110 E0.01692
G1 X240.995 Y16.944 E0.12598
G1 X240.995 Y17.479 E0.01680
G1 X237.778 Y14.262 E0.14300
G1 X237.243 Y14.262 E0.01680
G1 X240.995 Y18.013 E0.16676
G1 X240.995 Y18.548 E0.01680
G1 X236.709 Y14.262 E0.19053
G1 X236.174 Y14.262 E0.01680
G1 X240.995 Y19.083 E0.21430
G1 X240.995 Y19.617 E0.01680
G1 X235.639 Y14.262 E0.23806
G1 X235.105 Y14.262 E0.01680
G1 X240.995 Y20.152 E0.26183
G1 X240.995 Y20.686 E0.01680
G1 X234.570 Y14.262 E0.28559
G1 X234.036 Y14.262 E0.01680
G1 X240.995 Y21.221 E0.30936
G1 X240.995 Y21.756 E0.01680
G1 X233.501 Y14.262 E0.33312
G1 X233.041 Y14.262 E0.01446
G1 X232.843 Y14.111 E0.00782
G1 X232.815 Y14.111 E0.00088
G1 X240.995 Y22.290 E0.36361
G1 X240.995 Y22.825 E0.01680
G1 X232.281 Y14.111 E0.38737
G1 X231.746 Y14.111 E0.01681
G1 X234.432 Y16.797 E0.11942
M73 P0 R103
G1 X234.725 Y16.984 E0.01091
G1 X235.718 Y17.746 E0.03935
G1 X236.641 Y18.591 E0.03935
G1 X237.487 Y19.514 E0.03935
G1 X238.249 Y20.507 E0.03935
G1 X238.435 Y20.800 E0.01091
G1 X240.995 Y23.359 E0.11377
G1 X240.995 Y23.894 E0.01680
G1 X239.201 Y22.101 E0.07973
G1 X239.499 Y22.673 E0.02029
G1 X239.683 Y23.117 E0.01510
G1 X240.995 Y24.429 E0.05830
G1 X240.995 Y24.963 E0.01680
G1 X240.032 Y24.001 E0.04278
G1 X240.279 Y24.782 E0.02573
G1 X240.995 Y25.498 E0.03183
G1 X240.995 Y26.033 E0.01680
G1 X240.460 Y25.498 E0.02377
G1 X240.612 Y26.185 E0.02212
G1 X240.995 Y26.567 E0.01700
G1 X240.995 Y27.102 E0.01680
G1 X240.700 Y26.807 E0.01312
G1 X240.781 Y27.422 E0.01952
G1 X241.164 Y27.806 E0.01706
M204 S1100
;WIPE_START
G1 F6720.000
G1 X240.781 Y27.422 E-0.16111
G1 X240.700 Y26.807 E-0.18436
G1 X240.995 Y27.102 E-0.12390
G1 X240.995 Y26.567 E-0.15871
G1 X240.612 Y26.185 E-0.16059
G1 X240.495 Y25.654 E-0.16132
;WIPE_END
G1 E-0.05000 F2100.000
G1 Z0.600 F8400.000
G1 X241.164 Y29.945
G1 Z0.200
G1 E1.00000 F2100.000
M204 S1000
G1 F1500.000
G1 X240.914 Y29.694 E0.01112
G1 X240.802 Y29.692 E0.00353
G1 X240.776 Y30.090 E0.01255
G1 X240.995 Y30.309 E0.00974
G1 X240.995 Y30.844 E0.01680
G1 X240.713 Y30.563 E0.01250
G1 X240.651 Y31.035 E0.01498
G1 X240.995 Y31.379 E0.01527
G1 X240.995 Y31.913 E0.01680
G1 X240.568 Y31.487 E0.01895
G1 X240.471 Y31.925 E0.01409
G1 X240.995 Y32.448 E0.02326
G1 X240.995 Y32.983 E0.01680
G1 X240.374 Y32.362 E0.02757
G1 X240.253 Y32.775 E0.01353
G1 X240.995 Y33.517 E0.03299
G1 X240.995 Y34.052 E0.01680
G1 X240.124 Y33.182 E0.03869
G1 X239.996 Y33.588 E0.01340
G1 X240.995 Y34.586 E0.04438
G1 X240.995 Y35.121 E0.01680
G1 X239.844 Y33.970 E0.05117
G1 X239.687 Y34.348 E0.01286
G1 X240.995 Y35.656 E0.05813
G1 X240.995 Y36.190 E0.01680
G1 X239.530 Y34.726 E0.06509
G1 X239.353 Y35.083 E0.01253
G1 X240.995 Y36.725 E0.07299
G1 X240.995 Y37.260 E0.01680
G1 X239.170 Y35.434 E0.08113
G1 X238.987 Y35.786 E0.01246
G1 X240.995 Y37.794 E0.08927
G1 X240.995 Y38.329 E0.01680
G1 X238.788 Y36.122 E0.09812
G1 X238.579 Y36.448 E0.01217
G1 X240.995 Y38.863 E0.10737
G1 X240.995 Y39.398 E0.01680
G1 X238.371 Y36.775 E0.11662
G1 X238.153 Y37.091 E0.01208
G1 X240.995 Y39.933 E0.12630
G1 X240.995 Y40.467 E0.01680
G1 X237.921 Y37.394 E0.13662
G1 X237.689 Y37.696 E0.01199
G1 X240.995 Y41.002 E0.14694
G1 X240.995 Y41.536 E0.01680
G1 X237.454 Y37.996 E0.15739
G1 X237.198 Y38.275 E0.01189
G1 X240.995 Y42.071 E0.16876
G1 X240.995 Y42.606 E0.01680
G1 X236.943 Y38.554 E0.18012
G1 X236.687 Y38.833 E0.01189
G1 X240.995 Y43.140 E0.19148
G1 X240.995 Y43.675 E0.01680
G1 X236.412 Y39.093 E0.20370
G1 X236.133 Y39.348 E0.01189
G1 X240.995 Y44.210 E0.21610
M73 Q0 S104
G1 X240.995 Y44.744 E0.01680
G1 X235.854 Y39.604 E0.22850
G1 X235.563 Y39.848 E0.01193
G1 X240.995 Y45.279 E0.24144
